images/ui_elements/icn_goals.svg

<?xml version="1.0" encoding="UTF-8" standalone="no"?><!DOCTYPE svg PUBLIC "-//W3C//DTD SVG 1.1//EN" "http://www.w3.org/Graphics/SVG/1.1/DTD/svg11.dtd"><svg width="100%" height="100%" viewBox="0 0 26 26" version="1.1" xmlns="http://www.w3.org/2000/svg" xmlns:xlink="http://www.w3.org/1999/xlink" xml:space="preserve" xmlns:serif="http://www.serif.com/" style="fill-rule:evenodd;clip-rule:evenodd;stroke-linejoin:round;stroke-miterlimit:2;"><g><path d="M8.624,10.434c0.223,-0.379 0.494,-0.728 0.807,-1.038l-2.645,-2.9c-0.668,0.639 -1.235,1.376 -1.68,2.186l3.518,1.752m6.485,-2.049c0.4,0.183 0.773,0.418 1.109,0.695l2.653,-2.896c-0.704,-0.607 -1.497,-1.102 -2.351,-1.467l-1.411,3.668m6.075,0.872l-3.516,1.753c0.168,0.392 0.287,0.808 0.352,1.242l3.91,-0.369c-0.113,-0.908 -0.364,-1.794 -0.746,-2.626m-3.768,1.245l3.514,-1.752c-0.434,-0.806 -0.988,-1.542 -1.643,-2.182l-2.653,2.896c0.303,0.31 0.565,0.659 0.78,1.038m-9.489,2.498c0,-0.079 0.003,-0.158 0.007,-0.237l-3.912,-0.35c-0.061,0.928 0.023,1.86 0.247,2.763l3.778,-1.084c-0.079,-0.359 -0.12,-0.725 -0.12,-1.092m8.998,3.215c-0.278,0.339 -0.599,0.641 -0.954,0.898l2.066,3.344c0.766,-0.519 1.448,-1.152 2.022,-1.878l-3.134,-2.364m1.152,-3.215c0,0.37 -0.04,0.732 -0.117,1.08l3.778,1.085c0.22,-0.888 0.303,-1.804 0.246,-2.717l-3.911,0.37c0.003,0.061 0.004,0.121 0.004,0.182m-8.935,3.29l-3.126,2.376c0.582,0.717 1.27,1.341 2.041,1.85l2.065,-3.34c-0.364,-0.252 -0.693,-0.55 -0.98,-0.886m-1.151,-4.09c0.07,-0.443 0.198,-0.866 0.375,-1.261l-3.515,-1.751c-0.395,0.841 -0.657,1.738 -0.776,2.66l3.916,0.351m9.565,8.561l-2.062,-3.34c-0.379,0.214 -0.783,0.378 -1.204,0.489l0.728,3.863c0.893,-0.205 1.749,-0.547 2.538,-1.012m0.254,-6.134c-0.137,0.402 -0.322,0.781 -0.55,1.131l3.137,2.366c0.515,-0.74 0.915,-1.553 1.187,-2.412l-3.774,-1.085m-4.076,3.396c-0.438,0.063 -0.883,0.069 -1.323,0.018l-0.727,3.863c0.921,0.135 1.858,0.128 2.777,-0.021l-0.727,-3.86m-0.407,-10.086c0.435,0.028 0.856,0.11 1.255,0.242l1.411,-3.667c-0.858,-0.303 -1.757,-0.473 -2.666,-0.504l0,3.929m-1.475,10.007c-0.434,-0.101 -0.853,-0.259 -1.246,-0.47l-2.066,3.341c0.805,0.461 1.677,0.795 2.585,0.989l0.727,-3.86m-0.375,-9.783c0.416,-0.131 0.847,-0.208 1.282,-0.228l0,-3.929c-0.921,0.024 -1.833,0.191 -2.703,0.493l1.421,3.664m-2.679,7.679c-0.252,-0.372 -0.454,-0.775 -0.599,-1.2l-3.775,1.083c0.286,0.9 0.71,1.74 1.247,2.493l3.127,-2.376m1.06,-6.819c0.334,-0.264 0.699,-0.486 1.088,-0.659l-1.42,-3.661c-0.839,0.353 -1.619,0.83 -2.314,1.417l2.646,2.903" style="fill:#929192;fill-opacity:0.8;"/></g></svg>

<svg xmlns="http://www.w3.org/2000/svg" width="26" height="26" viewBox="0 0 26 26">
    <g fill="none" fill-rule="evenodd">
        <path fill="#202020" d="M-125-716h360V44h-360z"/>
        <path fill="#FFF" d="M-99-258h308c14.36 0 26 11.64 26 26v1424c0 14.36-11.64 26-26 26H-99c-14.36 0-26-11.64-26-26V-232c0-14.36 11.64-26 26-26z"/>
        <g>
            <path fill="#202020" d="M-125-20h360v64h-360z"/>
            <g fill="#929192">
                <g opacity=".8">
                    <path d="M8.624 10.434a5.11 5.11 0 0 1 .807-1.038l-2.645-2.9a9.046 9.046 0 0 0-1.68 2.186l3.518 1.752M15.109 8.385c.4.183.773.418 1.109.695l2.653-2.896a9.029 9.029 0 0 0-2.351-1.467l-1.411 3.668M21.184 9.257l-3.516 1.753c.168.392.287.808.352 1.242l3.91-.369a8.924 8.924 0 0 0-.746-2.626M17.416 10.502L20.93 8.75a9.035 9.035 0 0 0-1.643-2.182l-2.653 2.896c.303.31.565.659.78 1.038M7.925 13c0-.079.003-.158.007-.237l-3.912-.35a9.01 9.01 0 0 0 .247 2.763l3.778-1.084A5.079 5.079 0 0 1 7.925 13M16.923 16.215a5.14 5.14 0 0 1-.954.898l2.066 3.344a9.064 9.064 0 0 0 2.022-1.878l-3.134-2.364M18.075 13c0 .37-.04.732-.117 1.08l3.778 1.085a8.98 8.98 0 0 0 .246-2.717l-3.911.37a4.7 4.7 0 0 1 .004.182M9.14 16.29l-3.126 2.376a9.073 9.073 0 0 0 2.041 1.85l2.065-3.34a5.116 5.116 0 0 1-.98-.886M7.989 12.2c.07-.443.198-.866.375-1.261L4.849 9.188a8.938 8.938 0 0 0-.776 2.66l3.916.351M17.554 20.76l-2.062-3.34a5.058 5.058 0 0 1-1.204.489l.728 3.863a8.942 8.942 0 0 0 2.538-1.012M17.808 14.626c-.137.402-.322.781-.55 1.131l3.137 2.366a8.95 8.95 0 0 0 1.187-2.412l-3.774-1.085M13.732 18.022a5.106 5.106 0 0 1-1.323.018l-.727 3.863a9.082 9.082 0 0 0 2.777-.021l-.727-3.86M13.325 7.936c.435.028.856.11 1.255.242l1.411-3.667a8.941 8.941 0 0 0-2.666-.504v3.929M11.85 17.943a5.044 5.044 0 0 1-1.246-.47l-2.066 3.341a8.965 8.965 0 0 0 2.585.989l.727-3.86M11.475 8.16a5.024 5.024 0 0 1 1.282-.228V4.003a8.966 8.966 0 0 0-2.703.493l1.421 3.664M8.796 15.839a5.048 5.048 0 0 1-.599-1.2l-3.775 1.083c.286.9.71 1.74 1.247 2.493l3.127-2.376M9.856 9.02a5.075 5.075 0 0 1 1.088-.659L9.524 4.7A8.99 8.99 0 0 0 7.21 6.117L9.856 9.02"/>
                </g>
                <text font-family="RobotoCondensed-Regular, Roboto Condensed" font-size="11.25" font-style="condensed" letter-spacing=".225" transform="translate(-10)">
                    <tspan x=".229" y="34">The Goals</tspan>
                </text>
            </g>
        </g>
    </g>
</svg>
